icons/linear-ele-other-thumb-point.svg

<svg xmlns="http://www.w3.org/2000/svg" width="32px" height="32px" viewBox="0 0 32 32" version="1.1">
    <title>linear-ele-other-thumb-point</title>
    <g id="linear-ele-other-thumb-point" stroke-width="1" fill-rule="evenodd">
        <path d="M16,2 C18.209139,2 20,3.790861 20,6 L20,11.5119387 C20,11.9535469 20.2896682,12.3428698 20.7126521,12.469765 L27.8620437,14.6145824 C29.1309955,14.995268 30,16.1632366 30,17.4880613 L30,27 C30,28.6568542 28.6568542,30 27,30 L11.0292358,30 C10.0603825,30 9.15116992,29.5321029 8.58803538,28.7437146 L3.13936201,21.1155719 C2.01568817,19.5424285 2.35340673,17.3599449 3.9,16.2 C5.43872491,15.0459563 7.54328095,15.0060108 9.12469046,16.1008328 L12,18.091 L12,6 C12,3.85780461 13.6839685,2.10892112 15.8003597,2.00489531 L16,2 Z M16,4 C14.8954305,4 14,4.8954305 14,6 L14,20 C14,20.8066619 13.0940211,21.2813522 12.43079,20.8221922 L7.9862705,17.7452171 C7.11265404,17.1404057 5.95003625,17.1624728 5.1,17.8 C4.42256855,18.3080736 4.27464267,19.2640347 4.76682896,19.9530955 L10.2155023,27.5812382 C10.4032138,27.8440343 10.7062847,28 11.0292358,28 L27,28 C27.5522847,28 28,27.5522847 28,27 L28,17.4880613 C28,17.0464531 27.7103318,16.6571302 27.2873479,16.530235 L20.1379563,14.3854176 C18.8690045,14.004732 18,12.8367634 18,11.5119387 L18,6 C18,4.8954305 17.1045695,4 16,4 Z" id="&#24418;&#29366;" fill-rule="nonzero" />
    </g>
</svg>

<svg xmlns="http://www.w3.org/2000/svg" viewBox="0 0 32 32"><path fill="currentColor" d="M16 2a4 4 0 0 1 4 4v5.512a1 1 0 0 0 .713.958l7.149 2.145A3 3 0 0 1 30 17.488V27a3 3 0 0 1-3 3H11.03a3 3 0 0 1-2.442-1.256l-5.449-7.628A3.559 3.559 0 0 1 3.9 16.2a4.469 4.469 0 0 1 5.225-.1L12 18.092V6a4 4 0 0 1 3.8-3.995zm0 2a2 2 0 0 0-2 2v14a1 1 0 0 1-1.57.822l-4.444-3.077A2.469 2.469 0 0 0 5.1 17.8a1.559 1.559 0 0 0-.333 2.153l5.449 7.628a1 1 0 0 0 .813.419H27a1 1 0 0 0 1-1v-9.512a1 1 0 0 0-.713-.958l-7.149-2.145A3 3 0 0 1 18 11.512V6a2 2 0 0 0-2-2"/></svg>
